X:1
T:Title
%%score { 1 | 2 }
L:1/8
Q:1/4=100
M:2/4
K:G
V:1 treble nm="Grand Piano"
V:2 bass 
V:1
 [B,D][B,D] [CE][EG] | [DG]2 A2 | Bd de | d4 | [Ge][Ge] [Ge][Ge] | d2 B2 | GB A[^CG] | [DA]4 | %8
w: Hubert~P.~Main * * *||||||||
 [DB][DB] [Ec][DB] | [DA]2 [DG]2 | [CA][EG] [EG][CE] | [B,D]4 | [CE][EG] [Ec][Ge] | d2 B2 | %14
w: ||||||
 GG [CFA][DFB] | [B,G]4 | [FA][FA] [FA][FA] | [GB]2 [Gd]2 | [G^c][Gc] [GB][Gc] | [Fd]4 | %20
w: ||||||
 [=Fd][Fd] [Ec][DB] | [EA][Ee] [Ec][CEA] | [B,DG]2 [CDF]2 | [B,DG]4 |] %24
w: ||||
V:2
 [G,,G,][G,,G,] [C,G,][C,G,] | [B,,G,]2 [D,F,D]2 | [G,D][G,B,G] [G,B,G][G,CG] | [G,B,G]4 | %4
 [C,C][D,C] [E,C][F,C] | [G,B,G]2 [G,D]2 | [G,B,D][G,D] [E,A,^C][A,,A,] | [D,F,]4 | %8
 [G,,G,][G,,G,] [G,,G,][G,,G,] | [A,,F,]2 [B,,G,]2 | [C,E,][C,G,] [C,C][C,G,] | [G,,G,]4 | %12
 [C,G,][C,G,] [C,G,][C,C] | [G,B,G]2 [G,DG]2 | [D,B,][D,B,D] D,D, | G,,4 | [D,D][D,D] [D,D][D,D] | %17
 [G,D]2 [G,B,]2 | [E,A,][E,A,] [A,,A,][A,,A,] | [D,A,]4 | [G,B,][G,B,] [G,,G,][G,,G,] | %21
 [C,G,][C,G,] [C,A,]C, | D,2 D,2 | G,,4 |] %24

